libs/icons/svgs/undock.svg

<?xml version="1.0" encoding="UTF-8"?>
<svg xmlns="http://www.w3.org/2000/svg" viewBox="0 0 24 24">
  <path d="M10,5h-5v4h-2v-4c0-1.1.9-2,2-2h5v2ZM5,11h6c1.1,0,2,.9,2,2v6c0,1.1-.9,2-2,2h-6c-1.1,0-2-.9-2-2v-6c0-1.1.9-2,2-2ZM19,3h-5v2h5v5h2v-5c0-1.1-.9-2-2-2ZM15,19h4v-5h2v5c0,1.1-.9,2-2,2h-4v-2Z"/>
</svg>

<svg xmlns="http://www.w3.org/2000/svg" width="24" height="24">
    <path d="M10 5H5v4H3V5c0-1.1.9-2 2-2h5v2zm-5 6h6a2 2 0 012 2v6a2 2 0 01-2 2H5a2 2 0 01-2-2v-6c0-1.1.9-2 2-2zm14-8h-5v2h5v5h2V5a2 2 0 00-2-2zm-4 16h4v-5h2v5a2 2 0 01-2 2h-4v-2z" />
</svg>
